src/assets/outline/HierarchySquare.svg

<svg width="24" height="24" viewBox="0 0 24 24"  xmlns="http://www.w3.org/2000/svg">
<path d="M16.4498 15.15C16.0398 15.15 15.6998 14.81 15.6998 14.4V8.5C15.6998 8.36 15.5898 8.25 15.4498 8.25H12.5498C12.1398 8.25 11.7998 7.91 11.7998 7.5C11.7998 7.09 12.1398 6.75 12.5498 6.75H15.4498C16.4098 6.75 17.1998 7.54 17.1998 8.5V14.4C17.1998 14.81 16.8598 15.15 16.4498 15.15Z" />
<path d="M14.05 9.74968C13.88 9.74968 13.71 9.68967 13.57 9.57967L11.77 8.07967C11.6 7.93967 11.5 7.72968 11.5 7.49968C11.5 7.26968 11.6 7.0697 11.77 6.9197L13.57 5.4197C13.89 5.1597 14.36 5.19967 14.63 5.51967C14.9 5.83967 14.85 6.30967 14.53 6.57967L13.42 7.49968L14.53 8.4197C14.85 8.6897 14.89 9.15969 14.63 9.47969C14.48 9.65969 14.26 9.74968 14.05 9.74968Z" />
<path d="M7.5498 15.1502C7.1398 15.1502 6.7998 14.8102 6.7998 14.4002V10.2002C6.7998 9.7902 7.1398 9.4502 7.5498 9.4502C7.9598 9.4502 8.2998 9.7902 8.2998 10.2002V14.4002C8.2998 14.8102 7.9598 15.1502 7.5498 15.1502Z" />
<path d="M7.70001 10.65C6.21001 10.65 5 9.44001 5 7.95001C5 6.46001 6.21001 5.25 7.70001 5.25C9.19001 5.25 10.4 6.46001 10.4 7.95001C10.4 9.44001 9.19001 10.65 7.70001 10.65ZM7.70001 6.75C7.04001 6.75 6.5 7.29001 6.5 7.95001C6.5 8.61001 7.04001 9.14999 7.70001 9.14999C8.36001 9.14999 8.90002 8.61001 8.90002 7.95001C8.90002 7.29001 8.36001 6.75 7.70001 6.75Z" />
<path d="M7.54999 18.7504C6.13999 18.7504 5 17.6104 5 16.2004C5 14.7904 6.13999 13.6504 7.54999 13.6504C8.95999 13.6504 10.1 14.7904 10.1 16.2004C10.1 17.6104 8.95999 18.7504 7.54999 18.7504ZM7.54999 15.1504C6.96999 15.1504 6.5 15.6204 6.5 16.2004C6.5 16.7804 6.96999 17.2504 7.54999 17.2504C8.12999 17.2504 8.59998 16.7804 8.59998 16.2004C8.59998 15.6204 8.12999 15.1504 7.54999 15.1504Z" />
<path d="M16.4499 18.7504C15.0399 18.7504 13.8999 17.6104 13.8999 16.2004C13.8999 14.7904 15.0399 13.6504 16.4499 13.6504C17.8599 13.6504 18.9999 14.7904 18.9999 16.2004C18.9999 17.6104 17.8599 18.7504 16.4499 18.7504ZM16.4499 15.1504C15.8699 15.1504 15.3999 15.6204 15.3999 16.2004C15.3999 16.7804 15.8699 17.2504 16.4499 17.2504C17.0299 17.2504 17.4999 16.7804 17.4999 16.2004C17.4999 15.6204 17.0299 15.1504 16.4499 15.1504Z" />
<path d="M15 22.75H9C3.57 22.75 1.25 20.43 1.25 15V9C1.25 3.57 3.57 1.25 9 1.25H15C20.43 1.25 22.75 3.57 22.75 9V15C22.75 20.43 20.43 22.75 15 22.75ZM9 2.75C4.39 2.75 2.75 4.39 2.75 9V15C2.75 19.61 4.39 21.25 9 21.25H15C19.61 21.25 21.25 19.61 21.25 15V9C21.25 4.39 19.61 2.75 15 2.75H9Z" />
</svg>

<?xml version="1.0" encoding="UTF-8"?>
<svg width="24" height="24" viewBox="0 0 24 24" xmlns="http://www.w3.org/2000/svg">
 <path d="m16.45 15.15c-0.41 0-0.75-0.34-0.75-0.75v-5.9c0-0.14-0.11-0.25-0.25-0.25h-2.9c-0.41 0-0.75-0.34-0.75-0.75s0.34-0.75 0.75-0.75h2.9c0.96 0 1.75 0.79 1.75 1.75v5.9c0 0.41-0.34 0.75-0.75 0.75z"/>
 <path d="m14.05 9.7497c-0.17 0-0.34-0.06001-0.48-0.17001l-1.8-1.5c-0.17-0.14-0.27-0.34999-0.27-0.57999s0.1-0.42998 0.27-0.57998l1.8-1.5c0.32-0.26 0.79-0.22003 1.06 0.09997s0.22 0.79-0.1 1.06l-1.11 0.92001 1.11 0.92002c0.32 0.27 0.36 0.73999 0.1 1.06-0.15 0.18-0.37 0.26999-0.58 0.26999z"/>
 <path d="m7.5498 15.15c-0.41 0-0.75-0.34-0.75-0.75v-4.2c0-0.41 0.34-0.75 0.75-0.75s0.75 0.34 0.75 0.75v4.2c0 0.41-0.34 0.75-0.75 0.75z"/>
 <path d="m7.7 10.65c-1.49 0-2.7-1.21-2.7-2.7s1.21-2.7 2.7-2.7 2.7 1.21 2.7 2.7-1.21 2.7-2.7 2.7zm0-3.9c-0.66 0-1.2 0.54001-1.2 1.2s0.54001 1.2 1.2 1.2 1.2-0.53998 1.2-1.2-0.54001-1.2-1.2-1.2z"/>
 <path d="m7.55 18.75c-1.41 0-2.55-1.14-2.55-2.55s1.14-2.55 2.55-2.55 2.55 1.14 2.55 2.55-1.14 2.55-2.55 2.55zm0-3.6c-0.58 0-1.05 0.47-1.05 1.05s0.46999 1.05 1.05 1.05 1.05-0.47 1.05-1.05-0.46999-1.05-1.05-1.05z"/>
 <path d="m16.45 18.75c-1.41 0-2.55-1.14-2.55-2.55s1.14-2.55 2.55-2.55 2.55 1.14 2.55 2.55-1.14 2.55-2.55 2.55zm0-3.6c-0.58 0-1.05 0.47-1.05 1.05s0.47 1.05 1.05 1.05 1.05-0.47 1.05-1.05-0.47-1.05-1.05-1.05z"/>
 <path d="m15 22.75h-6c-5.43 0-7.75-2.32-7.75-7.75v-6c0-5.43 2.32-7.75 7.75-7.75h6c5.43 0 7.75 2.32 7.75 7.75v6c0 5.43-2.32 7.75-7.75 7.75zm-6-20c-4.61 0-6.25 1.64-6.25 6.25v6c0 4.61 1.64 6.25 6.25 6.25h6c4.61 0 6.25-1.64 6.25-6.25v-6c0-4.61-1.64-6.25-6.25-6.25h-6z"/>
</svg>
